X:502
M:C
L:1/8
K:G
g|e/f/g d>g B>gd>B|c>AB>G E2 E>g|e/f/g d>g B>gd>B|c>Ad>B G2 G>g|
e<gd<b c<aB<g|c>AB>G E2 E>A|G<D D>E G>A B<e|d<G A<B G2G:|

